X:1
T:Hark, the Heralds from the Sky
T:Hark, the Heralds from the Sky
T:John Henry Kurzenkenabe
T:John Henry Kurzenkenabe, 1889
T:Public Domain Courtesy of the Cyber Hymnal™
T:Public Domain Courtesy of the Cyber Hymnal™
C:John Henry Kurzenkenabe
Z:Public Domain
Z:Courtesy of the Cyber Hymnal™
%%score ( 1 2 ) ( 3 4 )
L:1/8
Q:1/4=100
M:4/4
K:Bb
V:1 treble 
V:2 treble 
V:3 bass 
V:4 bass 
V:1
 [DF][DF] | [DB]3 [DF] [Fd]2 [DB]2 | [DF]6 z2 | [Ec]3 [EB] [FA][EG][EF][CE] | %4
w: 1.~Hark! the|her- alds from the|sky;|Glo- ry be to God most|
w: 2.~Hail the|might- y Prince of|Peace,|Glor- ious Son of Right- eous-|
w: 3.~Let us|pon- der in our|mind|God’s great love to all man-|
w: 4.~Bring your|trib- ute, bring your|song,|Ye who to the Lord be-|
 [B,D]4- [B,D][DF][EG][FA] | [FB]2 [FB]2 [Fc]2 F2 | [Fd]4- [Fd][Ec][DB][FA] | %7
w: high! * The heav’n- ly|choirs glad tid- ings|bring * Of Christ the|
w: ness! * Be- hold Him|lay His glo- ry|by, * That man no|
w: kind, * And come to-|day with one ac-|cord * To wor- ship|
w: long: * Ye na- tions|who in dark- ness|lie, * Now learn His|
 ([EG][Ge][Fd])[Gc] [FB]2 A2 | [DB]6 ||"^Refrain" [DB][Ec] | [Fd]2 [Fd]2 [Fd]2 ([Ge][Fd]) | %11
w: new- * * born Sav- ior|king.|||
w: more * * be doomed to|die.|Let us|now with grate- ful *|
w: and * * o- bey the|Lord.|||
w: name * * and taste His|joy.|||
 (dc) [Fc]2 z2 [Fc][Fd] | [Ae]3 [Ac] [Af]3 [Fe] | [Fd]6 [DB][Ec] | [Fd]2 [Fd]2 [Fd]2 ([Ge][Fd]) | %15
w: ||||
w: voic- * es Join the|glad an- gel- ic|throng. Till with|loud ac- claim re- *|
w: ||||
w: ||||
 (dc) [Fc]2 z2 [Fc][Fd] | [Ac]3 [FA] [=EB]3 [EG] | F6 [EF][EF] | [DB]2 [DB][Ec] [Fd]2 [Fd][_Af] | %19
w: ||||
w: joic- * es Ev- ery|kin- dred, clime and|tongue, Sing- ing|glo- ry to God in the|
w: ||||
w: ||||
 [Gf]2 [Ge]2 [Gd]2 [Gc]2 |"^riten." [FB]2 [Fd]2 [Fc]2 !fermata![Ff]2 | [FB]6 |] %22
w: |||
w: high- est, On earth,|peace, good will toward|men.|
w: |||
w: |||
V:2
 x2 | x8 | x8 | x8 | x8 | x6 F2 | x8 | x6 (FE) | x6 || x2 | x8 | F2 x6 | x8 | x8 | x8 | F2 x6 | %16
 x8 | F6 x2 | x8 | x8 | x8 | x6 |] %22
V:3
 [B,,B,][B,,B,] | [B,,B,]3 [B,,B,] [B,,B,]2 [B,,B,]2 | [B,,B,]6 z2 | %3
 [F,A,]3 [F,C] [F,C][F,C][F,A,][F,A,] | [B,,B,]4- [B,,B,][B,,B,][E,B,][C,E] | %5
 [B,,D]2 [D,B,]2 [F,A,]2 [F,A,]2 | B,4- B,[F,A,][G,B,][D,B,] | B,3 [E,E] [F,D]2 [F,C]2 | %8
 [B,,B,]6 || [B,,B,][B,,B,] | [B,,B,]2 [B,,B,]2 [B,,B,]2 [B,,B,]2 | %11
 (B,A,) [F,A,]2 z2 [F,A,][F,B,] | [F,C]3 [F,C] [F,C]3 [F,A,] | [B,,B,]6 [B,,B,][B,,B,] | %14
 [B,,B,]2 [B,,B,]2 [B,,B,]2 [B,,B,]2 | (B,A,) [F,A,]2 z2 [F,A,][F,B,] | %16
 [F,C]3 [F,C] [C,C]3 [C,B,] | [F,A,]6 [F,A,][F,A,] | %18
 [B,,B,]2 [B,,B,][B,,B,] [B,,B,]2 [B,,B,][D,B,] | [E,B,]2 [E,B,]2 [E,B,]2 [E,E]2 | %20
 [F,D]2 [F,B,]2 [F,A,]2 [F,E]2 | [B,,B,D]6 |] %22
V:4
 x2 | x8 | x8 | x8 | x8 | x8 | B,4- B, x3 | (E,C,D,) x5 | x6 || x2 | x8 | F,2 x6 | x8 | x8 | x8 | %15
 F,2 x6 | x8 | x8 | x8 | x8 | x8 | x6 |] %22

